X:440
T:Welsh Air,A. RH.441
R:air
S:Rev.R.Harrison’s MS,c1815,Cumbria
O:England
A:Temple Sowerby,Cumbria
Z:vmp.Simon Wilson. Review PJH, 2008.
M:2/4
L:1/8
Q:1/4=150
K:D
a>bag|e2de/f/|gfed|c2A2|\
Bcde|f2a2|gfe2|d4:|!
fgag|fgag|(fbag)|f2d2|\
efgf|efgf|(eagf)|e2d2|!
(df/)e/ dc|B2B2|(Bg/)f/ ed|d2cA|\
Bcde|f2a2|gfe2|d4|!
(df/)e/ dc|B2B2|Bg/f/ ed|d2cA|\
Bcde|f2a2|gfe2|d4|]

